src/actions/22/mail-mark-notjunk.svg

<svg version="1.1" viewBox="0 0 22 22" xmlns="http://www.w3.org/2000/svg">
 <defs>
  <style id="current-color-scheme" type="text/css">.ColorScheme-Text {
        color:#363636;
      }</style>
 </defs>
 <path class="ColorScheme-Text" d="m16.5 11a3.5 3.5 0 0 0-3.5 3.5 3.5 3.5 0 0 0 3.5 3.5 3.5 3.5 0 0 0 3.5-3.5 3.5 3.5 0 0 0-3.5-3.5zm1.9902 1.3789 0.70703 0.70703-3.5352 3.5352-2.1211-2.1211 0.70703-0.70703 1.4141 1.4141 2.8281-2.8281z" fill="currentColor"/>
 <path d="m5 4c-1.662 0-3 1.338-3 3v8c0 1.662 1.338 3 3 3h7v-1h-7c-1.0692 0-1.9288-0.83294-1.9883-1.8867l4.5977-3.498 0.7207 0.54883c0.98774 0.7512 2.4021 0.98417 3.6699 0.72266v-0.90234c-0.95179 0.29872-2.0835 0.15256-2.8594-0.4375l-6.1289-4.6602c0.059506-1.0538 0.9191-1.8867 1.9883-1.8867h12c1.0692 0 1.9288 0.83294 1.9883 1.8867l-4.0938 3.1133h1.623l2.4824-1.8887v1.8887h1v-3c0-1.662-1.338-3-3-3h-12zm-2 4.1094 3.8008 2.8906-3.8008 2.8887v-5.7793z" class="ColorScheme-Text" fill="currentColor"/>
</svg>

<svg xmlns="http://www.w3.org/2000/svg" viewBox="0 0 22 22">
    <defs>
        <style id="current-color-scheme" type="text/css">
            .ColorScheme-Text{color:#050505;opacity:.7}
        </style>
    </defs>
    <path fill="currentColor" d="M16.5 11a3.5 3.5 0 0 0-3.5 3.5 3.5 3.5 0 0 0 3.5 3.5 3.5 3.5 0 0 0 3.5-3.5 3.5 3.5 0 0 0-3.5-3.5zm1.99 1.379.707.707-3.535 3.535-2.121-2.121.707-.707 1.414 1.414 2.828-2.828z" class="ColorScheme-Text"/>
    <path fill="currentColor" d="M5 4C3.338 4 2 5.338 2 7v8c0 1.662 1.338 3 3 3h7v-1H5a1.99 1.99 0 0 1-1.988-1.887l4.597-3.498.721.55c.988.75 2.402.983 3.67.722v-.903c-.952.3-2.083.153-2.86-.437l-6.128-4.66A1.99 1.99 0 0 1 5 5h12a1.99 1.99 0 0 1 1.988 1.887L14.894 10h1.623L19 8.111v1.89h1V7c0-1.663-1.338-3-3-3H5zM3 8.11 6.8 11 3 13.889v-5.78z" class="ColorScheme-Text"/>
</svg>
